X:72
%%etbk:tnset id:25,pos:1,rep:3x,ant:
%%etbk:wsite http://www.thesession.org/tunes/display/496
%%etbk:video src:ytube,cde:0Mi-szr1Sl0,desc:
%%etbk:pldat 2016-07-12T16:25,2016-03-17T18:47,2016-01-02T13:49,2015-08-16T14:43,2015-05-28T18:30,2015-05-26T18:34,2015-04-23T18:04,2015-04-21T17:20,2015-02-21T17:34,2015-02-17T17:47,2015-02-16T19:08,2015-01-20T18:08,2014-11-15T16:15,2014-09-16T18:08,2014-09-13T13:54,2014-05-20T17:11,2014-05-14T15:35,2014-05-06T16:47,2014-04-30T17:37,2014-04-01T17:25,2014-03-21T16:14,2014-02-11T16:14,2013-08-29T16:49,2013-08-27T18:27,2013-05-23T18:57,2013-05-12T18:41,2013-05-01T16:37
T: Glen of Aherlow, The
T: Lafferty's
Z: Piano Box Version by Martin Fleischmann
H: Created 2013-02-19 /  Last Modified 2013-02-19
M: 4/4
L: 1/8
R: reel
K: Edor
|: "em"!5!B2!4!A!2!F BFAF | !1!E!2!D!3!EF !3!ED!1!B,!2!D | !5!B2AF BFAF | "bm"!1!D!2!F!4!A!2!F "em"F!1!EE2 |
"em"!5!B2!4!A!2!F BFAF | !1!E!2!D!3!EF !3!ED!1!B,!1!A, | !1!B,2!2!EE !1!D!2!E!3!F!4!A | "bm"!5!BBA!2!F "em"F!1!EE2 :|
|: "em"!5!e!1!B!2!B!1!B !3!efge | "D"!4!f2!2!dd !1!A!2!d!4!fd | "em"!3!e!1!B!2!B!1!B !2!egfe | "bm"!1!d!2!B!1!A!2!F "em"F!1!EE2 |
"em"!5!e!1!B!2!B!1!B !3!efge | "D"!4!f2!2!dd !1!A!2!d!4!fd  | "em"!1!B3!2!d !2!egfe | "bm"!1!d!2!B!1!A!2!F "em"F!1!EE2 :|


